X:14
T: Het reden twee ghespeeln goet
N: L0070A
O: Europa, Mitteleuropa, Deutschland
N: Hs. des 15. Jh.
R: Lied
M: 4/4
L: 1/4
K: D
A | A2=c2 | B2d2 | =c2B2 | A2z
A | d2=c2 | =c2A2 | AG=F2 | E2z
D | =F3G | A3A | _B2GB | AG=F2 | E2z
E | =F2D2 | E2G2 | G=FE2 | D2z

@@@ Tune index: 5418
